sites/WD/images/vk.svg

<svg width="44" height="24" viewBox="0 0 44 24" fill="none" xmlns="http://www.w3.org/2000/svg">
<path d="M43.5181 21.2C43.4651 21.0956 43.4157 21.009 43.3698 20.9396C42.6108 19.6897 41.1602 18.1555 39.0191 16.3366L38.9738 16.295L38.9512 16.2746L38.9283 16.2536H38.9053C37.9335 15.4067 37.3182 14.8372 37.0605 14.5456C36.5889 13.9902 36.4833 13.428 36.741 12.8584C36.9231 12.428 37.607 11.5191 38.7911 10.1305C39.414 9.39452 39.9073 8.80469 40.2716 8.36031C42.899 5.16678 44.038 3.12607 43.6886 2.23738L43.5529 2.0297C43.4617 1.90467 43.2263 1.7903 42.8471 1.68598C42.467 1.58189 41.9812 1.56468 41.3888 1.63405L34.8287 1.67548C34.7224 1.64105 34.5707 1.64426 34.373 1.68598C34.1755 1.72771 34.0767 1.74864 34.0767 1.74864L33.9625 1.8008L33.8719 1.86346C33.796 1.90489 33.7124 1.97776 33.6212 2.08193C33.5305 2.18573 33.4546 2.30755 33.394 2.44636C32.6798 4.12636 31.8677 5.68833 30.9564 7.13221C30.3945 7.99318 29.8784 8.73933 29.4071 9.37111C28.9365 10.0027 28.5416 10.468 28.223 10.7663C27.9039 11.0648 27.6158 11.304 27.3572 11.4847C27.0989 11.6655 26.9018 11.7418 26.7653 11.7139C26.6284 11.6859 26.4996 11.6582 26.3776 11.6305C26.1651 11.5055 25.9942 11.3354 25.8654 11.1203C25.736 10.9051 25.6488 10.6342 25.6033 10.3079C25.558 9.98144 25.5312 9.7006 25.5235 9.46448C25.5164 9.22865 25.5197 8.89507 25.5351 8.46469C25.5509 8.0341 25.558 7.74276 25.558 7.59001C25.558 7.06233 25.5692 6.48963 25.5918 5.87179C25.6148 5.25394 25.6334 4.76441 25.6489 4.40377C25.6644 4.04276 25.6716 3.66083 25.6716 3.25817C25.6716 2.85551 25.6448 2.53973 25.5918 2.31054C25.5395 2.08164 25.4591 1.85945 25.3533 1.64404C25.2467 1.42885 25.0908 1.26239 24.8863 1.14422C24.6813 1.0262 24.4265 0.932534 24.1232 0.862945C23.3183 0.696411 22.2933 0.606324 21.0478 0.592319C18.2234 0.5646 16.4085 0.731352 15.6037 1.09236C15.2848 1.24488 14.9962 1.45329 14.7382 1.71691C14.4648 2.02248 14.4266 2.18923 14.624 2.21666C15.5353 2.34147 16.1804 2.64003 16.5601 3.11206L16.697 3.36219C16.8034 3.54265 16.9097 3.86215 17.016 4.32025C17.1222 4.77834 17.1907 5.28509 17.2209 5.8402C17.2967 6.85392 17.2967 7.72168 17.2209 8.44354C17.1449 9.1657 17.0731 9.72788 17.0045 10.1305C16.936 10.5332 16.8336 10.8595 16.697 11.1093C16.5601 11.3592 16.4691 11.512 16.4235 11.5674C16.3779 11.6229 16.3399 11.6578 16.3098 11.6715C16.1124 11.7407 15.9071 11.7759 15.6946 11.7759C15.4819 11.7759 15.2238 11.6786 14.9202 11.4841C14.6166 11.2896 14.3015 11.0225 13.975 10.6823C13.6484 10.342 13.2801 9.86648 12.87 9.25564C12.4601 8.6448 12.0349 7.92286 11.5945 7.08983L11.2301 6.48569C11.0023 6.09704 10.6912 5.53114 10.2963 4.78848C9.90123 4.04554 9.55202 3.32688 9.24844 2.63266C9.12709 2.3411 8.94479 2.11913 8.70184 1.96639L8.58783 1.90372C8.51204 1.84829 8.39037 1.78942 8.22346 1.72669C8.05631 1.66403 7.88191 1.61909 7.69952 1.59145L1.45813 1.63288C0.820335 1.63288 0.387589 1.76498 0.159727 2.02883L0.0685342 2.15363C0.0229777 2.22315 0 2.33417 0 2.48699C0 2.63974 0.0455565 2.82721 0.136749 3.04918C1.04788 5.00703 2.03871 6.89521 3.10925 8.71402C4.17979 10.5328 5.11006 11.9979 5.89952 13.108C6.68914 14.2189 7.494 15.2673 8.3141 16.2528C9.13419 17.2387 9.67704 17.8704 9.94264 18.148C10.2086 18.4261 10.4174 18.634 10.5693 18.7728L11.1388 19.2725C11.5033 19.6058 12.0385 20.005 12.7446 20.47C13.451 20.9353 14.2329 21.3934 15.0909 21.845C15.9491 22.2959 16.9474 22.6638 18.0865 22.9484C19.2254 23.2332 20.3339 23.3475 21.4122 23.2924H24.0318C24.5631 23.2504 24.9656 23.0977 25.2392 22.8341L25.3298 22.7297C25.3907 22.6468 25.4478 22.5181 25.5005 22.3448C25.5537 22.1713 25.5802 21.9801 25.5802 21.7721C25.5647 21.1752 25.6144 20.6373 25.728 20.1583C25.8415 19.6795 25.9709 19.3185 26.1157 19.0754C26.2603 18.8324 26.4235 18.6275 26.6052 18.4613C26.7873 18.2948 26.917 18.1939 26.9931 18.1592C27.0688 18.1242 27.1292 18.1005 27.1747 18.0863C27.5392 17.9753 27.9681 18.0828 28.4621 18.4094C28.9557 18.7356 29.4187 19.1385 29.8518 19.6173C30.2846 20.0966 30.8046 20.6343 31.4119 21.2312C32.0197 21.8283 32.551 22.2722 33.0064 22.5642L33.4618 22.8141C33.766 22.9808 34.1608 23.1336 34.6469 23.2724C35.132 23.4111 35.5571 23.4459 35.9221 23.3765L41.7533 23.2933C42.33 23.2933 42.7788 23.206 43.0971 23.0328C43.4161 22.8592 43.6056 22.668 43.6667 22.4601C43.7277 22.2519 43.7309 22.0157 43.6783 21.7516C43.6243 21.4882 43.571 21.304 43.5181 21.2Z" fill="white"/>
</svg>

<svg width="44" height="24" fill="none" xmlns="http://www.w3.org/2000/svg"><path d="M43.518 21.2a2.667 2.667 0 0 0-.148-.26c-.76-1.25-2.21-2.785-4.35-4.603l-.046-.042-.023-.02-.023-.021h-.023c-.971-.847-1.587-1.417-1.845-1.708-.471-.556-.577-1.118-.319-1.688.182-.43.866-1.339 2.05-2.728.623-.735 1.116-1.325 1.48-1.77 2.628-3.193 3.767-5.234 3.418-6.123l-.136-.207c-.091-.125-.327-.24-.706-.344-.38-.104-.866-.121-1.458-.052l-6.56.041c-.107-.034-.258-.03-.456.011l-.296.063-.114.052-.091.062a.983.983 0 0 0-.25.219c-.091.104-.167.226-.228.364a32.81 32.81 0 0 1-2.438 4.686 44.01 44.01 0 0 1-1.549 2.24c-.47.63-.865 1.096-1.184 1.394-.32.299-.607.538-.866.719-.258.18-.455.257-.592.229a18.443 18.443 0 0 1-.387-.084 1.44 1.44 0 0 1-.513-.51 2.142 2.142 0 0 1-.262-.812 8.22 8.22 0 0 1-.08-.844c-.007-.235-.003-.569.012-1 .016-.43.023-.721.023-.874 0-.528.011-1.1.034-1.718.023-.618.041-1.108.057-1.468.015-.361.023-.743.023-1.146 0-.402-.027-.718-.08-.947a3.052 3.052 0 0 0-.239-.667 1.158 1.158 0 0 0-.467-.5 2.777 2.777 0 0 0-.763-.281c-.805-.167-1.83-.257-3.075-.27-2.825-.028-4.64.138-5.444.5-.32.152-.608.36-.866.624-.273.305-.311.472-.114.5.911.124 1.556.423 1.936.895l.137.25c.106.18.213.5.319.958.106.458.175.965.205 1.52.076 1.014.076 1.882 0 2.604a28.379 28.379 0 0 1-.216 1.686c-.069.403-.171.73-.308.98-.137.25-.228.402-.273.457a.379.379 0 0 1-.114.104c-.198.07-.403.105-.615.105-.213 0-.471-.097-.775-.292a5.312 5.312 0 0 1-.945-.802c-.327-.34-.695-.816-1.105-1.426-.41-.611-.835-1.333-1.275-2.166l-.365-.604a50.41 50.41 0 0 1-.934-1.698 31.393 31.393 0 0 1-1.048-2.155 1.393 1.393 0 0 0-.546-.667l-.114-.062a1.61 1.61 0 0 0-.365-.177A2.595 2.595 0 0 0 7.7 1.59l-6.242.042c-.638 0-1.07.132-1.298.396l-.091.125c-.046.07-.069.18-.069.333 0 .153.046.34.137.562a66.337 66.337 0 0 0 2.972 5.665c1.07 1.819 2.001 3.284 2.79 4.394.79 1.11 1.595 2.16 2.415 3.145.82.986 1.363 1.617 1.629 1.895s.474.486.626.625l.57.5c.364.333.9.732 1.606 1.197a27.85 27.85 0 0 0 2.346 1.375c.858.45 1.856.819 2.996 1.103 1.138.285 2.247.4 3.325.344h2.62c.531-.042.934-.194 1.207-.458l.09-.104a1.32 1.32 0 0 0 .171-.385c.054-.174.08-.365.08-.573a6.295 6.295 0 0 1 .148-1.614c.113-.479.243-.84.388-1.083.144-.243.308-.447.49-.614.181-.166.311-.267.387-.302.076-.035.136-.058.182-.073.364-.11.793-.003 1.287.323.494.327.957.73 1.39 1.208.433.48.953 1.017 1.56 1.614.608.597 1.139 1.041 1.594 1.333l.456.25c.304.167.699.32 1.185.458.485.14.91.174 1.275.105l5.831-.084c.577 0 1.026-.087 1.344-.26.32-.174.509-.365.57-.573.06-.208.064-.444.011-.708-.054-.264-.107-.448-.16-.552Z" fill="#fff"/></svg>
